apps/explorer/src/assets/img/code.svg

<svg fill="none" height="12" viewBox="0 0 20 12" width="20" xmlns="http://www.w3.org/2000/svg"><g fill="#c5d9ed"><path d="m7.37376 1.70711c.39053-.39053.39053-1.023693 0-1.414217-.39052-.3905241-1.02369-.3905241-1.41421 0l-5 4.999997c-.390525.39053-.390525 1.02369 0 1.41422l5 4.99999c.39052.3905 1.02369.3905 1.41421 0 .39053-.3905.39053-1.0237 0-1.4142l-4.29289-4.2929z"/><path d="m14.0405.292893c-.3906-.3905241-1.0237-.3905241-1.4143 0-.3905.390524-.3905 1.023687 0 1.414217l4.2929 4.29289-4.2929 4.2929c-.3905.3905-.3905 1.0237 0 1.4142.3906.3905 1.0237.3905 1.4143 0l5-4.99999c.3905-.39053.3905-1.02369 0-1.41422z"/></g></svg>

<svg width="20" height="12" viewBox="0 0 20 12" fill="none" xmlns="http://www.w3.org/2000/svg">
<path d="M7.37376 1.70711C7.76429 1.31658 7.76429 0.683417 7.37376 0.292893C6.98324 -0.0976311 6.35007 -0.0976311 5.95955 0.292893L0.95955 5.29289C0.569025 5.68342 0.569025 6.31658 0.95955 6.70711L5.95955 11.7071C6.35007 12.0976 6.98324 12.0976 7.37376 11.7071C7.76429 11.3166 7.76429 10.6834 7.37376 10.2929L3.08087 6L7.37376 1.70711Z" fill="#C5D9ED"/>
<path d="M14.0405 0.292893C13.6499 -0.0976311 13.0168 -0.0976311 12.6262 0.292893C12.2357 0.683417 12.2357 1.31658 12.6262 1.70711L16.9191 6L12.6262 10.2929C12.2357 10.6834 12.2357 11.3166 12.6262 11.7071C13.0168 12.0976 13.6499 12.0976 14.0405 11.7071L19.0405 6.70711C19.431 6.31658 19.431 5.68342 19.0405 5.29289L14.0405 0.292893Z" fill="#C5D9ED"/>
</svg>
